Numix-GalliumOS/16/actions/bookmark-add.svg

<svg xmlns="http://www.w3.org/2000/svg" viewBox="0 0 16 16">
 <path d="m 2 0 0 13 4 -4 4 4 0 -4 0 -1 -2 0 0 -4 2 0 0 -4 z" style="fill:#bebebe"/>
 <path d="m 11 3 0 2 -2 0 0 2 2 0 0 2 2 0 0 -2 2 0 0 -2 -2 0 0 -2 -2 0 z" style="fill:#859900;fill-opacity:1"/>
 <path d="M 10 0 L 2 0.03125 L 2 13 L 6 9 L 10 13 L 10 8 L 8 8 L 8 4 L 10 4 L 10 0 z " style="fill:#dc322f;fill-rule:evenodd"/>
 <path d="M 2,0 2,13 3,12 3,0 z m 7,0 0,4 1,0 0,-4 z m 0,8 0,4 1,1 0,-5 z" style="fill-opacity:0.1;fill-rule:evenodd"/>
</svg>

<?xml version="1.0" encoding="UTF-8" standalone="no"?>
<svg
   xmlns:dc="http://purl.org/dc/elements/1.1/"
   xmlns:cc="http://creativecommons.org/ns#"
   xmlns:rdf="http://www.w3.org/1999/02/22-rdf-syntax-ns#"
   xmlns:svg="http://www.w3.org/2000/svg"
   xmlns="http://www.w3.org/2000/svg"
   xmlns:sodipodi="http://sodipodi.sourceforge.net/DTD/sodipodi-0.dtd"
   xmlns:inkscape="http://www.inkscape.org/namespaces/inkscape"
   viewBox="0 0 16 16"
   id="svg2"
   version="1.1"
   inkscape:version="0.48.5 r10040"
   width="100%"
   height="100%"
   sodipodi:docname="bookmark-add-symbolic.svg">
  <metadata
     id="metadata14">
    <rdf:RDF>
      <cc:Work
         rdf:about="">
        <dc:format>image/svg+xml</dc:format>
        <dc:type
           rdf:resource="http://purl.org/dc/dcmitype/StillImage" />
      </cc:Work>
    </rdf:RDF>
  </metadata>
  <defs
     id="defs12" />
  <sodipodi:namedview
     pagecolor="#ffffff"
     bordercolor="#666666"
     borderopacity="1"
     objecttolerance="10"
     gridtolerance="10"
     guidetolerance="10"
     inkscape:pageopacity="0"
     inkscape:pageshadow="2"
     inkscape:window-width="1280"
     inkscape:window-height="998"
     id="namedview10"
     showgrid="true"
     showguides="true"
     inkscape:guide-bbox="true"
     inkscape:zoom="29.5"
     inkscape:cx="5.3439969"
     inkscape:cy="8.1308395"
     inkscape:window-x="0"
     inkscape:window-y="0"
     inkscape:window-maximized="1"
     inkscape:current-layer="svg2">
    <inkscape:grid
       type="xygrid"
       id="grid3000" />
  </sodipodi:namedview>
  <path
     style="fill:#bebebe"
     inkscape:connector-curvature="0"
     id="path6"
     d="M 2,0 2,13 6,9 10,13 10,9 10,8 8,8 8,4 10,4 10,0 z" />
  <path
     style="fill:#859900;fill-opacity:1"
     inkscape:connector-curvature="0"
     id="path8"
     d="m 11,3 0,2 -2,0 0,2 2,0 0,2 2,0 0,-2 2,0 0,-2 -2,0 0,-2 -2,0 z" />
  <path
     style="fill:#dc322f;fill-rule:evenodd"
     d="M 10 0 L 2 0.03125 L 2 13 L 6 9 L 10 13 L 10 8 L 8 8 L 8 4 L 10 4 L 10 0 z "
     id="path6-6" />
  <path
     style="fill-opacity:0.1;fill-rule:evenodd"
     d="M 2,0 2,13 3,12 3,0 z m 7,0 0,4 1,0 0,-4 z m 0,8 0,4 1,1 0,-5 z"
     id="path8-2"
     inkscape:connector-curvature="0"
     sodipodi:nodetypes="ccccccccccccccc" />
</svg>
